X: 27550
T: Monaghan, The
R: jig
M: 6/8
K: Eminor
|:BGE F2E|BGE FGA|BGE F2E|AFD FGA|
BGE F2E|BGE FGA|d^cd ABG|FDF AGF:|
|:EGB efg|fed edB|EGB dBG|FDF AGF|
EGB efg|fed edB|d^cd ABG|FDF AGF:|
|:ggg eBe|ggg bge|ggg eag|fdf agf|
ggg eBe|ggg bge|ded ABG|FDF AGF :
|:EGB edB|dBG AGF|EGB dBG|FDF AGF|
EGB GBd|Beg efg|dcB ABG|FDF AGF:|

